public/images/icon-camper--forest.svg

<svg width="45" height="42" viewBox="0 0 45 42" fill="none" xmlns="http://www.w3.org/2000/svg">
<path d="M15 0H27.5V2.5H45V12.5H23.75V36.25H18.5156C17.6562 39.1406 15 41.25 11.875 41.25C8.04688 41.25 5 38.2031 5 34.375V34.2969L0.390625 28.6719L0 28.2031V2.5H15V0ZM27.5 16.25H38.5938L39.375 17.1094L44.375 22.7344L45 23.4375V36.25H41.0156C40.1562 39.1406 37.5 41.25 34.375 41.25C30.5469 41.25 27.5 38.2031 27.5 34.375V16.25ZM36.4062 21.25H32.5V25H39.6875L36.4062 21.25ZM11.875 37.5C13.5938 37.5 15 36.0938 15 34.375C15 32.6562 13.5938 31.25 11.875 31.25C10.1562 31.25 8.75 32.6562 8.75 34.375C8.75 36.0938 10.1562 37.5 11.875 37.5ZM37.5 34.375C37.5 32.6562 36.0938 31.25 34.375 31.25C32.6562 31.25 31.25 32.6562 31.25 34.375C31.25 36.0938 32.6562 37.5 34.375 37.5C36.0938 37.5 37.5 36.0938 37.5 34.375ZM17.5 12.5H7.5V20H17.5V12.5Z" fill="#375519"/>
</svg>

<svg width="45" height="42" viewBox="0 0 45 42" fill="none" xmlns="http://www.w3.org/2000/svg"><path d="M15 0h12.5v2.5H45v10H23.75v23.75h-5.234c-.86 2.89-3.516 5-6.641 5A6.836 6.836 0 0 1 5 34.375v-.078L.39 28.672 0 28.203V2.5h15V0Zm12.5 16.25h11.094l.781.86 5 5.624.625.703V36.25h-3.984c-.86 2.89-3.516 5-6.641 5a6.836 6.836 0 0 1-6.875-6.875V16.25Zm8.906 5H32.5V25h7.188l-3.282-3.75ZM11.875 37.5A3.134 3.134 0 0 0 15 34.375a3.134 3.134 0 0 0-3.125-3.125 3.134 3.134 0 0 0-3.125 3.125 3.134 3.134 0 0 0 3.125 3.125ZM37.5 34.375a3.134 3.134 0 0 0-3.125-3.125 3.134 3.134 0 0 0-3.125 3.125 3.134 3.134 0 0 0 3.125 3.125 3.134 3.134 0 0 0 3.125-3.125ZM17.5 12.5h-10V20h10v-7.5Z" fill="#375519"/></svg>
